src/cmd/lc_pagebreakmode.svg

<svg viewBox="0 0 24 24" xmlns="http://www.w3.org/2000/svg"><path d="m4 4v1 8h1v-2h4v2h1v-2h4v-1h-4v-2h4v-1h-4v-1-1h4v-1zm11 0v1h4v2h-3-1v1h4v2h-4v1h4v2h1v-8-1zm-10 1h4v1 1h-1-3zm0 3h3 1v2h-4zm-1 6v6h1 9v-1h-4v-2h4v-1h-4v-2h-1v2h-1-3v-2zm15 0v2h-4v1h4v2h-4v1h4 1v-6zm-14 3h3 1v1.099609.900391h-4z" fill="#232629"/><path d="m14 4v3h1v-3zm0 4v2h1v-2zm0 3v2h1v-2zm1 2v1h5v-1zm0 1h-1v2h1zm-1 0v-1h-4v1zm-10-1v1h5v-1zm10 4v3h1v-3z" fill="#762572"/></svg>

<?xml version="1.0" encoding="UTF-8" standalone="no"?>
<svg
   xmlns:dc="http://purl.org/dc/elements/1.1/"
   xmlns:cc="http://creativecommons.org/ns#"
   xmlns:rdf="http://www.w3.org/1999/02/22-rdf-syntax-ns#"
   xmlns:svg="http://www.w3.org/2000/svg"
   xmlns="http://www.w3.org/2000/svg"
   xmlns:sodipodi="http://sodipodi.sourceforge.net/DTD/sodipodi-0.dtd"
   xmlns:inkscape="http://www.inkscape.org/namespaces/inkscape"
   viewBox="0 0 24 24"
   version="1.1"
   id="svg6"
   sodipodi:docname="lc_pagebreakmode.svg"
   inkscape:version="0.92.4 (5da689c313, 2019-01-14)">
  <metadata
     id="metadata12">
    <rdf:RDF>
      <cc:Work
         rdf:about="">
        <dc:format>image/svg+xml</dc:format>
        <dc:type
           rdf:resource="http://purl.org/dc/dcmitype/StillImage" />
      </cc:Work>
    </rdf:RDF>
  </metadata>
  <defs
     id="defs10" />
  <sodipodi:namedview
     pagecolor="#ffffff"
     bordercolor="#666666"
     borderopacity="1"
     objecttolerance="10"
     gridtolerance="10"
     guidetolerance="10"
     inkscape:pageopacity="0"
     inkscape:pageshadow="2"
     inkscape:window-width="1920"
     inkscape:window-height="1011"
     id="namedview8"
     showgrid="true"
     inkscape:zoom="55.625733"
     inkscape:cx="9.6320392"
     inkscape:cy="8.8341056"
     inkscape:window-x="1920"
     inkscape:window-y="32"
     inkscape:window-maximized="1"
     inkscape:current-layer="svg6">
    <inkscape:grid
       type="xygrid"
       id="grid822" />
  </sodipodi:namedview>
  <path
     d="M 7,4 C 5,4 4,4 4,6 v 7 h 1 v -2 h 4 v 2 h 1 v -2 h 4 V 10 H 10 V 8 h 4 V 7 H 10 V 6 5 h 4 V 4 Z m 8,0 v 1 h 2 c 1,0 2,0 2,1 v 1 h -3 -1 v 1 h 4 v 2 h -4 v 1 h 4 v 2 h 1 V 6 C 20,4 19,4 17,4 Z M 5,6 C 5,5 6,5 7,5 H 9 V 6 7 H 8 5 Z m 0,2 h 3 1 v 2 H 5 Z m -1,6 v 4 c 0,2 1,2 3,2 h 7 v -1 h -4 v -2 h 4 V 16 H 10 V 14 H 9 v 2 H 8 5 v -2 z m 15,0 v 2 h -4 v 1 h 4 v 1 c 0,1 -1,1 -2,1 h -2 v 1 h 2 c 2,0 3,0 3,-2 V 14 Z M 5,17 H 8 9 V 18.099609 19 H 7 C 6,19 5,19 5,18 Z"
     id="path2"
     inkscape:connector-curvature="0"
     style="fill:#232629"
     sodipodi:nodetypes="ccccccccccccccccccccccccccccccccccccccccccccccccccccccccccccccccccccccccccccccccccccccccccc" />
  <path
     d="m14 4v3h1v-3zm0 4v2h1v-2zm0 3v2h1v-2zm1 2v1h5v-1zm0 1h-1v2h1zm-1 0v-1h-4v1zm-10-1v1h5v-1zm10 4v3h1v-3z"
     fill="#762572"
     id="path4" />
</svg>
